X:101 
T:John Joe's  
T:Old Joe's
B:CRE 3.023 (Port Sheáin tSeosaimh)
F:file ID: cre.3/101john_j
N:Also called "Old Joe's"; "John" = "Seán", "old" = "sean"
(no accent mark over the a)
Q:160
L:1/8
M:6/8
R:jig
K:D
de|:f2A AFA|BAF A3|Bc/d/B AFA|Bcd efg|
f3 A3|BAF A3|Bc/d/B AFA|1 Bdc dc/d/e:|2 BdA d3||
eff efe|dBA dc/d/e|f2a afd|faa aba|
f3 efe|dBA cde|fAA AFA|BdA d3:|

